newicons/emoji_anchor.svg

<?xml version="1.0" encoding="UTF-8" standalone="no"?>
<svg
   version="1.2"
   viewBox="0 0 48 48"
   id="svg1"
   xmlns="http://www.w3.org/2000/svg"
   xmlns:svg="http://www.w3.org/2000/svg">
  <defs
     id="defs1" />
  <path
     d="m 37.974942,21.818982 -4.157457,7.193749 h 2.500896 c -1.901271,4.377776 -5.995539,7.390946 -10.71302,7.943098 V 18.119564 h 3.155506 c 0.950832,0 1.712177,-0.842742 1.557793,-1.833223 C 30.197174,15.507254 29.468962,14.96441 28.680479,14.96441 H 25.605361 V 13.063431 C 27.191318,12.360621 28.242022,10.649344 27.91101,8.740476 27.641766,7.187825 26.416247,5.9080952 24.873362,5.5870584 22.327106,5.0572293 20.083225,6.989682 20.083225,9.442893 c 0,1.617015 0.978208,3.005283 2.36663,3.620538 v 1.900979 h -3.07504 c -0.788561,0 -1.516772,0.542844 -1.63818,1.321931 -0.154463,0.990481 0.606961,1.833223 1.557715,1.833223 h 3.155505 V 36.955829 C 17.771897,36.39579 13.638184,33.358955 11.736914,29.012731 h 2.445595 l -4.157458,-7.193749 -4.1573774,7.193749 h 2.5875149 c 0,0.18931 0.04268,0.366944 0.102558,0.56004 2.1081145,6.789731 13.0663175,11.964735 15.0665925,12.860247 0.202662,0.09079 0.425047,0.09182 0.628419,0.0027 2.033803,-0.890858 13.302271,-6.116343 15.449828,-13.422969 h 2.42974 L 37.974947,21.819021 M 24.027608,8.654104 c 0.433961,0 0.788876,0.354955 0.788876,0.788789 0,0.433833 -0.354915,0.788787 -0.788876,0.788787 -0.433882,0 -0.788877,-0.354954 -0.788877,-0.788787 0,-0.433834 0.354995,-0.788789 0.788877,-0.788789"
     fill="none"
     stroke="#ffffff"
     stroke-linecap="round"
     stroke-linejoin="round"
     stroke-width="1.18325"
     id="path1"
     style="stroke-width:1;stroke-dasharray:none" />
</svg>

<?xml version="1.0" encoding="UTF-8"?><svg id="b" xmlns="http://www.w3.org/2000/svg" viewBox="0 0 48 48"><defs><style>.d{fill:none;stroke:#fff;stroke-linecap:round;stroke-linejoin:round;}</style></defs><path id="c" class="d" d="m37.9749,21.8186l-4.1575,7.1937h2.5009c-1.9013,4.3778-5.9955,7.3909-10.713,7.9431v-18.8363h3.1555c.9508,0,1.7122-.8427,1.5578-1.8332-.1215-.7791-.8497-1.3219-1.6382-1.3219h-3.0751v-1.901c1.586-.7028,2.6367-2.4141,2.3056-4.323-.2692-1.5527-1.4948-2.8324-3.0376-3.1534-2.5463-.5298-4.7901,1.4026-4.7901,3.8558,0,1.617.9782,3.0053,2.3666,3.6205v1.901h-3.075c-.7886,0-1.5168.5428-1.6382,1.3219-.1545.9905.607,1.8332,1.5577,1.8332h3.1555v18.8363c-4.678-.56-8.8117-3.5969-10.7129-7.9431h2.4456l-4.1575-7.1937-4.1574,7.1937h2.5875c0,.1893.0427.3669.1026.56,2.1081,6.7897,13.0663,11.9647,15.0666,12.8602.2027.0908.425.0918.6284.0027,2.0338-.8909,13.3023-6.1163,15.4498-13.423h2.4297l-4.1574-7.1937m-13.9473-13.8857c.8305,0,1.5098.6793,1.5098,1.5096s-.6792,1.5096-1.5098,1.5096-1.5098-.6793-1.5098-1.5096.6794-1.5096,1.5098-1.5096"/></svg>
